X:1
T: The Holystone
C:
R:Strathspey
Q: 128
K:A
M:4/4
L:1/16
|:c3d|e3c AE3 F3A df3|e4 a4 g4 c3d|e3c AE3 F3A df3|EE3 F3G A4 c3d|
e3c AE3 F3A df3|e4a4g4 c3d|e3c AE3 f3d BF3|E4 GB3 A4 c3d|
e3c AE3 a3g fa3|e3d ce3 B4 c3d|e3c AE3 f3d BF3|EE3 C3B, A,4 c3d|
e3c AE3 a3g fa3|e3d ce3 B4 c3d|e3c AE3 f3d BF3|EE3 G3B A4:|
